!!!OTL: O ICH HABE DEINE STIMME
!!!ARE: Europa, Mitteleuropa, Deutschland
!!!SCT: F0937
!!!YEM: Copyright 1995, estate of Helmut Schaffrath.
**kern
*ICvox
*Ivox
*M4/4
*k[f#c#g#d#]
*E:
{8.b
16b
=1
8b
8g#
8gg#
8ff#
8ee
8dd#
8cc#
8b
=2
16b
16cc#
16g#
16a
4a
4r}
{8.a
16a
=3
8a
8f#
8ff#
8ee
8dd#
8cc#
8b
8a
=4
4a
4g#
4r}
{8.e
16e
=5
8f#
8d#
4e
8a
8f#
4g#
=6
4cc#
4b}
{4.ee
8ee
=7
16cc#
16ee
16dd#
16ee
16dd#
16cc#
16b
16a
4g#
4f#
=8
2e
4r}
==
!!!AGN: Liebes - Lied
!!!ONB: ESAC (Essen Associative Code) Database: FINK
!!!AMT: simple quadruple
!!!AIN: vox
!!!EED: Helmut Schaffrath
!!!EEV: 1.0
*-
